resources/images/MissileSiloUnit.svg

<svg xmlns="http://www.w3.org/2000/svg" width="9" height="9" shape-rendering="geometricPrecision" image-rendering="optimizeQuality" fill-rule="evenodd" xmlns:v="https://vecta.io/nano"><path d="M3.5-.5h1c.70964 2.2463 1.20964 4.57963 1.5 7 .67076.75244 1.5041 1.08577 2.5 1v1h-9v-1c.995904.08577 1.82924-.24756 2.5-1 .29036-2.42037.79036-4.7537 1.5-7z"/></svg>

<?xml version="1.0" encoding="UTF-8"?>
<!DOCTYPE svg PUBLIC "-//W3C//DTD SVG 1.1//EN" "http://www.w3.org/Graphics/SVG/1.1/DTD/svg11.dtd">
<svg xmlns="http://www.w3.org/2000/svg" version="1.1" width="9px" height="9px" style="shape-rendering:geometricPrecision; text-rendering:geometricPrecision; image-rendering:optimizeQuality; fill-rule:evenodd; clip-rule:evenodd" xmlns:xlink="http://www.w3.org/1999/xlink">
<g><path style="opacity:1" fill="#000000" d="M 3.5,-0.5 C 3.83333,-0.5 4.16667,-0.5 4.5,-0.5C 5.20964,1.7463 5.70964,4.07963 6,6.5C 6.67076,7.25244 7.5041,7.58577 8.5,7.5C 8.5,7.83333 8.5,8.16667 8.5,8.5C 5.5,8.5 2.5,8.5 -0.5,8.5C -0.5,8.16667 -0.5,7.83333 -0.5,7.5C 0.495904,7.58577 1.32924,7.25244 2,6.5C 2.29036,4.07963 2.79036,1.7463 3.5,-0.5 Z"/></g>
</svg>
